Obsidian-SemiLight/actions/16s/amarok_change_language.svg

<svg viewBox="0 0 16 16" xmlns="http://www.w3.org/2000/svg"><path d="m2 2v1 5h1 3v2 1l3 3v-3h4 1v-5-1h-1-3v-3h-7zm1 1h6v2 1 1h-2-1-3zm7 3h3v4h-5-1v-2h1v2l2-2v-1z" fill="#4d4d4d"/></svg>

<svg xmlns="http://www.w3.org/2000/svg" viewBox="0 0 16 16">
  <defs id="defs3051">
    <style type="text/css" id="current-color-scheme">
      .ColorScheme-Text {
        color:#4d4d4d;
      }
      </style>
  </defs>
 <path style="fill:currentColor;fill-opacity:1;stroke:none" 
     d="M 2 2 L 2 3 L 2 8 L 3 8 L 6 8 L 6 10 L 6 11 L 9 14 L 9 11 L 13 11 L 14 11 L 14 6 L 14 5 L 13 5 L 10 5 L 10 2 L 3 2 L 2 2 z M 3 3 L 9 3 L 9 5 L 9 6 L 9 7 L 7 7 L 6 7 L 3 7 L 3 3 z M 10 6 L 13 6 L 13 10 L 8 10 L 7 10 L 7 8 L 8 8 L 8 10 L 10 8 L 10 7 L 10 6 z "
     class="ColorScheme-Text"
     />
</svg>
